X: 4012
T: Charlie he's my Darling.  Modern Set.
%R: air
N: This is version 2, for ABC software that understands voice overlays and diminuendo symbols.
U: Q=!diminuendo(!
U: q=!diminuendo)!
B: Niel Gow & Sons "Complete Repository" v.4 p.1 #2
Z: 2021 John Chambers <jc:trillian.mit.edu>
N: The book has bass bar 5 in treble clef.
M: C
L: 1/8
Q: "SLOW"
K: Dm
% - - - - - - - - - -
V: 1 staves=2
~A, |\
D>EFG Q(A2q.d) z/A/ | Q(B2q.d) z/B/ Q(A2q.d) z/F/ | ~D>EFG A2~d>e | [f2d2A2] T[e^cG]>[dF] [d3A3F3] :: d |
.^c(AQ=Bc) ~d>efdq | .^c(QA=Bc) d2qT[e2_B2G2] | [fcA]>efd =cA ~F(G/A/) | QB>G A>F EA/G/ FqE |
!p!D>EFG Q(A2q.d) z/A/ | Q(B2q.d) z/B/ Q(A2q.d) A/F/ | ~D>EFG A2~d>e | [f2d2A2] T[e^cG]>[dF] [d3A3F3] :|
% - - - - - - - - - -
V: 2 clef=bass middle=d
z |\
d>^c de "^dim..."(f2.d) z/^f/ | "^dim..."(g2.e) z/e/ "^dim..."(f2.d)z | z>^cde f>e f>g | a2A2 d2D :: z |
z2"^dim..."(^g'=g' f'>e') d'2 | z"^dim..."(a^g=g) f2"^sf"=c2 | [fF]>[gG][aA][bB] [a2A2][f2F2] | "^dim..."g>e f>d ^c2 A2 |
!p!d>^cde "^dim..."(f2.d) z/^f/ | "^dim..."(g2.d) z/e/ "^dim..."(f2.d)z | d>^cde f>ef>g | a2A2 [d3D3] :|

% %newpage
% %vskip 4.5cm
% %center --- 4019 spacer ---
% %sep 1 1 500

% %newpage
% %vskip 3.0cm
% %center --- 4019 spacer ---
%%sep 1 1 300
%%begintext align
%%    As the Sets of the old Tunes here given differ from those formerly published, & as this 4th Part not only contain
%% many Ancient Airs that never before appeared but also a number of new Tunes Composed purposely for this work. __
%% The Book is therefore entered in Stationers' Hall agreeable to Act of Parliament.
%%    Walker & Anderson Engravers & [Printers?].
%%endtext
%%sep 1 1 300


